X:2
T:Mercy Mercy Mercy
C:Josef Zawinul
L:1/8
M:C
I:linebreak $
K:Bb
"Bb" z2 G F3 DB, |"Eb" CB,B,G, B,2 C2 |"Bb" z2 G F3 DB, |"Eb" CB,B,G, B,2 C2 |$"Bb" z2 G F3 DB, |
"Eb" CB,B,G, B,2 C2 |"Bb" z2 G F3 DB, |"Eb" CB,B,G, B,2 C2 |$"Bb" F2 F2"Bb4" G G3 |
"Bb7" _A2 _A2"Bb4" G G3 |"Bb" F2 F2"Bb4" G G3 |"Bb7" _A2 _A2"Bb4" G G3 |$"Bb" F2 B,B, DDEE |
"F" F4"F4" z4 |"Bb" D2 B,B, DDEE |"F7" F4 z F GB |$"Cm" c3 c3 Bc |"Dm" d3 d3 df |
"Gm" g3"F" f"Gm" g3"F" f |"Gm" g8 |]


